src/assets/tokens/WIMX.svg

<svg xmlns="http://www.w3.org/2000/svg" viewBox="0 0 500 500"><path d="M370.6 370.6s-54.6-63.7-72.8-85c-2.1-2.4-2.8-5.7-2.1-8.7.6-1.7 1.8-3.5 2.9-4.8l8.4-9.3 93.2 107.8h-29.6zm-57.6 0l-67.6-78.9-3.4-4.3c-3.2-3.7-3.1-9.4.2-13l126.1-146.9h31.2l-126.8 145c-3.3 3.6-3.4 9.3-.2 13l73.2 85.1H313zm-78.8-115.9c-26.1 30.2-99.4 115.9-99.4 115.9h-32.6L202 255c3.2-3.7 3.2-9.2 0-12.8l-99-114.6h31.3l99.6 115.6c2.6 3.4 3 8.3.3 11.5m-1.2 65.6l-9.7 11.3-33.5 39.1h-30.3l64.1-74.6s7.1 8.5 9.6 11.3c3.2 3.7 3.1 9.3-.2 12.9m-43.6-192.7s53.7 64.2 73.1 84.1c3.1 3.1 2.5 7.2-.3 10.5-10.3 12.1-10.6 12.3-10.6 12.3l-92.3-107h30.1zm80.5 50.3l9.7-11.3 33.5-39.1h30.3l-64.1 74.6s-7.1-8.5-9.6-11.3c-3.2-3.7-3.1-9.3.2-12.9M249.5 1.4C112.3 1.4 1 112.6 1 249.9c0 137.2 111.3 248.5 248.5 248.5S498 387.1 498 249.9C498 112.6 386.7 1.4 249.5 1.4"/></svg>

<?xml version="1.0" encoding="utf-8"?>
<!-- Generator: Adobe Illustrator 27.0.1, SVG Export Plug-In . SVG Version: 6.00 Build 0)  -->
<svg version="1.1" id="imx" xmlns="http://www.w3.org/2000/svg" xmlns:xlink="http://www.w3.org/1999/xlink" x="0px" y="0px"
	 viewBox="0 0 500 500" style="enable-background:new 0 0 500 500;" xml:space="preserve">
<path d="M370.6,370.6c0,0-54.6-63.7-72.8-85c-2.1-2.4-2.8-5.7-2.1-8.7c0.6-1.7,1.8-3.5,2.9-4.8l8.4-9.3l93.2,107.8H370.6z
	 M313,370.6l-67.6-78.9l-3.4-4.3c-3.2-3.7-3.1-9.4,0.2-13l126.1-146.9h31.2L272.7,272.5c-3.3,3.6-3.4,9.3-0.2,13l73.2,85.1H313z
	 M234.2,254.7c-26.1,30.2-99.4,115.9-99.4,115.9h-32.6L202,255c3.2-3.7,3.2-9.2,0-12.8L103,127.6h31.3l99.6,115.6
	C236.5,246.6,236.9,251.5,234.2,254.7 M233,320.3l-9.7,11.3l-33.5,39.1h-30.3l64.1-74.6c0,0,7.1,8.5,9.6,11.3
	C236.4,311.1,236.3,316.7,233,320.3 M189.4,127.6c0,0,53.7,64.2,73.1,84.1c3.1,3.1,2.5,7.2-0.3,10.5c-10.3,12.1-10.6,12.3-10.6,12.3
	l-92.3-107H189.4z M269.9,177.9l9.7-11.3l33.5-39.1h30.3l-64.1,74.6c0,0-7.1-8.5-9.6-11.3C266.5,187.1,266.6,181.5,269.9,177.9
	 M249.5,1.4C112.3,1.4,1,112.6,1,249.9c0,137.2,111.3,248.5,248.5,248.5c137.2,0,248.5-111.3,248.5-248.5
	C498,112.6,386.7,1.4,249.5,1.4"/>
</svg>
